X: 10782
Q: "Andante"
M: 2/4
L: 1/16
K: F
c2 |\
f2f2 B2(dc) | c3d/B/ (BA) (GF) |\
f2f2 B2d>c | (c3d/B/) (BA) GF |\
c3c d2e2 |
f2{a}g2 (fe)(dc) |\
f3f {e}d2 c2dB | A3B/A/ G2c2 |\
f2f2 B3d/c/ | c2dB BA GF |\
(Ac) (fa) {a}g4 {f}e4 | {e}f4 z2 |]


